packages/ui/assets/svg/matic.svg

<svg width="35" height="31" viewBox="0 0 35 31" fill="none" xmlns="http://www.w3.org/2000/svg">
<path d="M26.1575 9.29044C25.5262 8.92964 24.7144 8.92964 23.9928 9.29044L18.9417 12.267L15.5141 14.1612L10.5532 17.1377C9.92183 17.4985 9.11004 17.4985 8.38845 17.1377L4.50992 14.7925C3.87853 14.4317 3.42754 13.7102 3.42754 12.8984V8.38845C3.42754 7.66687 3.78833 6.94528 4.50992 6.49429L8.38845 4.23933C9.01984 3.87853 9.83163 3.87853 10.5532 4.23933L14.4317 6.58448C15.0631 6.94528 15.5141 7.66687 15.5141 8.47865V11.4552L18.9417 9.47083V6.40409C18.9417 5.6825 18.5809 4.96091 17.8593 4.50992L10.6434 0.270595C10.012 -0.0901984 9.20024 -0.0901984 8.47865 0.270595L1.08238 4.60012C0.360794 4.96091 0 5.6825 0 6.40409V14.8827C0 15.6043 0.360794 16.3259 1.08238 16.7769L8.38845 21.0162C9.01984 21.377 9.83163 21.377 10.5532 21.0162L15.5141 18.1299L18.9417 16.1455L23.9026 13.2592C24.534 12.8984 25.3458 12.8984 26.0673 13.2592L29.9459 15.5141C30.5773 15.8749 31.0283 16.5965 31.0283 17.4083V21.9182C31.0283 22.6398 30.6675 23.3614 29.9459 23.8124L26.1575 26.0673C25.5262 26.4281 24.7144 26.4281 23.9928 26.0673L20.1142 23.8124C19.4829 23.4516 19.0319 22.73 19.0319 21.9182V19.0319L15.6043 21.0162V23.9928C15.6043 24.7144 15.9651 25.436 16.6867 25.8869L23.9928 30.1263C24.6242 30.4871 25.436 30.4871 26.1575 30.1263L33.4636 25.8869C34.095 25.5262 34.546 24.8046 34.546 23.9928V15.4239C34.546 14.7023 34.1852 13.9808 33.4636 13.5298L26.1575 9.29044Z" fill="#8247E5"/>
</svg>

<svg width="35" height="31" viewBox="0 0 35 31" fill="none" xmlns="http://www.w3.org/2000/svg"><path d="M26.157 9.29c-.63-.36-1.443-.36-2.164 0l-5.051 2.977-3.428 1.894-4.96 2.977c-.632.36-1.444.36-2.166 0L4.51 14.792a2.198 2.198 0 0 1-1.082-1.894v-4.51c0-.721.36-1.443 1.082-1.894L8.388 4.24c.632-.36 1.444-.36 2.165 0l3.879 2.345a2.199 2.199 0 0 1 1.082 1.895v2.976l3.428-1.984V6.404c0-.721-.361-1.443-1.083-1.894L10.643.27C10.012-.09 9.2-.09 8.48.27L1.082 4.6C.361 4.96 0 5.683 0 6.404v8.479c0 .721.36 1.443 1.082 1.894l7.306 4.24c.632.36 1.444.36 2.165 0l4.961-2.887 3.428-1.985 4.96-2.886c.632-.36 1.444-.36 2.165 0l3.879 2.255a2.199 2.199 0 0 1 1.082 1.894v4.51c0 .722-.36 1.443-1.082 1.894l-3.789 2.255c-.63.361-1.443.361-2.164 0l-3.879-2.255a2.199 2.199 0 0 1-1.082-1.894v-2.886l-3.428 1.984v2.977c0 .721.361 1.443 1.083 1.894l7.306 4.24c.631.36 1.443.36 2.165 0l7.306-4.24a2.198 2.198 0 0 0 1.082-1.894v-8.57c0-.72-.36-1.442-1.082-1.893l-7.306-4.24Z" fill="#8247E5"/></svg>
